svg/eye_arrow_left.svg

<svg xmlns="http://www.w3.org/2000/svg" viewBox="0 0 24 24"><path d="M12 4.5C7 4.5 2.73 7.61 1 12c1.73 4.39 6 7.5 11 7.5.36 0 .72 0 1.08-.05a6 6 0 0 1-.08-.95c0-.56.08-1.12.24-1.66-.41.1-.82.16-1.24.16-2.76 0-5-2.24-5-5s2.24-5 5-5 5 2.24 5 5c0 .29-.03.59-.08.88.66-.25 1.37-.38 2.08-.38 1.17 0 2.31.34 3.29 1 .27-.5.51-1 .71-1.5-1.73-4.39-6-7.5-11-7.5M12 9c-1.66 0-3 1.34-3 3s1.34 3 3 3 3-1.34 3-3-1.34-3-3-3m6 6v2h4v2h-4v2l-3-3z"/></svg>

<svg xmlns="http://www.w3.org/2000/svg" id="mdi-eye-arrow-left" viewBox="0 0 24 24"><path d="M12 4.5C7 4.5 2.73 7.61 1 12C2.73 16.39 7 19.5 12 19.5C12.36 19.5 12.72 19.5 13.08 19.45C13.03 19.13 13 18.82 13 18.5C13 17.94 13.08 17.38 13.24 16.84C12.83 16.94 12.42 17 12 17C9.24 17 7 14.76 7 12S9.24 7 12 7 17 9.24 17 12C17 12.29 16.97 12.59 16.92 12.88C17.58 12.63 18.29 12.5 19 12.5C20.17 12.5 21.31 12.84 22.29 13.5C22.56 13 22.8 12.5 23 12C21.27 7.61 17 4.5 12 4.5M12 9C10.34 9 9 10.34 9 12S10.34 15 12 15 15 13.66 15 12 13.66 9 12 9M18 15V17H22V19H18V21L15 18L18 15" /></svg>
